icon/lg/cardano.svg

<?xml version="1.0" encoding="UTF-8"?>
<svg viewBox="0 0 512 103" version="1.1" xmlns="http://www.w3.org/2000/svg" xmlns:xlink="http://www.w3.org/1999/xlink" preserveAspectRatio="xMidYMid" height="1em" width="1em">
  <g fill="#0033AD">
    <path d="M52.3780303,99.6182946 C52.4750885,97.9178876 53.9320451,96.6180099 55.6324716,96.7147242 C56.4494857,96.7611932 57.2145427,97.1304428 57.7592152,97.7411827 C58.3038877,98.3519227 58.5835224,99.1540834 58.5365579,99.9710692 C58.4388119,101.671437 56.9813297,102.970725 55.2809425,102.873323 C53.5805552,102.775921 52.2809721,101.318702 52.3780303,99.6182946 Z M27.1172123,96.2808926 C27.8520334,95.1614877 29.355112,94.8495965 30.4746469,95.5842196 C31.0125202,95.9371645 31.3880927,96.4893864 31.5186896,97.1193246 C31.6492866,97.7492629 31.5242025,98.4052794 31.1709722,98.9429653 C30.4357551,100.06211 28.9325662,100.37347 27.8132913,99.6384504 C26.6940165,98.9034312 26.3823912,97.4002975 27.1172123,96.2808926 Z M81.2982042,95.3302656 C81.8721606,95.0397574 82.5381438,94.9896461 83.1491097,95.1909958 C83.7600755,95.3923456 84.2657735,95.8285958 84.5545492,96.4034259 C84.9963372,97.2791396 84.8670564,98.334758 84.2269987,99.0779789 C83.5869411,99.8211998 82.5621769,100.105633 81.6306192,99.7986291 C80.6990615,99.4916252 80.0441966,98.6536539 79.9714299,97.6755147 C79.8986632,96.6973756 80.4223274,95.77173 81.2982042,95.3302656 Z M32.9729206,83.448679 C34.1051564,81.7191912 36.424843,81.2346634 38.1547057,82.3663263 C39.8841663,83.5004284 40.3680957,85.8210894 39.236058,87.551902 C38.1026769,89.2806395 35.7826698,89.7636308 34.0535571,88.6308223 C32.3244444,87.4980138 31.8406848,85.1781668 32.9729206,83.448679 Z M73.691874,82.067316 C74.5765162,81.6160167 75.6043378,81.5351258 76.5486871,81.8424812 C77.4930364,82.1498365 78.2763508,82.820194 78.7258965,83.7057286 C79.4154061,85.0566242 79.2227587,86.6899202 78.2378672,87.8433201 C77.2529758,88.99672 75.6700167,89.4428249 74.2277933,88.9734275 C72.7855698,88.5040301 71.7684237,87.2116746 71.6510804,85.6995327 C71.5368251,84.227184 72.2975708,82.8291068 73.5862375,82.1230363 L73.691874,82.067316 Z M51.4339316,79.7803915 C52.2138483,78.1756797 53.8843254,77.1994973 55.6652399,77.3077276 C58.0890651,77.452774 59.9379969,79.5325932 59.7981355,81.9567232 C59.6970173,83.7380556 58.5318871,85.2826907 56.8468679,85.8692742 C55.1618487,86.4558578 53.2894013,85.9686547 52.1039703,84.6351917 C50.9185394,83.3017288 50.654015,81.3851034 51.4339316,79.7803915 Z M12.4521088,72.9577422 C13.1826042,72.5885539 14.0298892,72.5248617 14.8073687,72.7806924 C15.5848481,73.0365231 16.2287582,73.5908951 16.5972926,74.3217207 C17.3641153,75.842376 16.753318,77.6967492 15.2328916,78.4640256 C13.7124651,79.231302 11.8579098,78.621058 11.0901798,77.1008606 C10.3381177,75.6116875 10.9078288,73.80149 12.3601909,73.0061194 L12.4521088,72.9577422 Z M95.0183631,73.8349671 C95.9518917,72.4105204 97.8632749,72.0123107 99.2879741,72.9454541 C99.9726323,73.3938886 100.450984,74.0960591 100.617695,74.8973443 C100.784405,75.6986296 100.625803,76.5333207 100.176813,77.2176149 C99.242514,78.6415565 97.3309157,79.0387323 95.9067214,78.1048185 C94.4825272,77.1709047 94.0848344,75.2594139 95.0183631,73.8349671 Z M43.3036405,60.1562129 C46.3232568,58.526172 50.0641663,59.1547544 52.3852062,61.6821819 C54.706246,64.2096094 55.0146475,67.990404 53.1338925,70.8605742 C51.752371,72.9812281 49.3897209,74.2566274 46.8587724,74.2480788 C43.4272845,74.2454623 40.4356971,71.9130976 39.596288,68.5858603 C38.7568789,65.2586229 40.2840242,61.7862539 43.3036405,60.1562129 Z M62.2408021,59.5923964 C65.7543443,58.4615671 69.568184,60.0568557 71.2301591,63.3525486 C73.0807201,67.0450771 71.5974466,71.5388464 67.9123737,73.4042097 C66.8659256,73.9348976 65.7105375,74.2153317 64.5372438,74.2234159 C60.8462069,74.2234159 57.7045329,71.5363526 57.1322055,67.8899578 C56.5598781,64.243563 58.7272599,60.7232257 62.2408021,59.5923964 Z M26.1458428,63.754642 C27.3090074,62.403608 29.1715336,61.8863678 30.8647928,62.4441473 C32.558052,63.0019268 33.7485212,64.5248596 33.8809998,66.3026937 C34.0134784,68.0805278 33.0618721,69.7630814 31.4699825,70.5656599 C29.2971225,71.6611446 26.6475942,70.7883588 25.5512172,68.615949 C24.7479849,67.0243891 24.9826782,65.1056759 26.1458428,63.754642 Z M78.226237,64.0939452 C79.5620351,62.0591342 82.2944508,61.4924669 84.3292675,62.8282566 C86.3600708,64.1668048 86.9259771,66.8956084 85.5949412,68.9313434 C84.259126,70.9661433 81.5267056,71.5327877 79.4919001,70.196981 C77.4570946,68.8611744 76.8904388,66.1287563 78.226237,64.0939452 Z M30.486935,51.0562624 C30.7211967,46.9801842 34.1745157,43.8412725 38.2543873,43.9959973 C42.3342589,44.1507222 45.5399209,47.5421688 45.4647918,51.624282 C45.3905068,55.6605287 42.1357605,58.9039756 38.1159096,58.9806979 L37.9785764,58.9820832 L37.5689732,58.9820832 C33.4756667,58.7428965 30.3393568,55.2687994 30.5008088,51.1884006 L30.5074151,51.0521664 L30.486935,51.0562624 Z M65.8500219,50.9722938 C66.0875503,46.8381678 69.6314765,43.6793513 73.7656025,43.9168797 C75.7491924,44.0187054 77.6087413,44.9130599 78.9266021,46.3990748 C80.8945169,48.6025175 81.3846308,51.7563519 80.1782171,54.4530935 C78.9926036,57.1033394 76.385812,58.8262615 73.4921709,58.8862563 L73.3396153,58.8878744 L72.9054359,58.8878744 C68.7713099,58.650346 65.6124934,55.1064198 65.8500219,50.9722938 Z M12.6527162,51.3132279 C12.7698974,49.249435 14.5375548,47.6711703 16.6013886,47.7876294 C18.6662016,47.9064088 20.2445031,49.6753529 20.1280716,51.7402997 C20.009446,53.80401 18.2406845,55.3810372 16.1769327,55.2631338 C14.113181,55.1452304 12.5355349,53.3770208 12.6527162,51.3132279 Z M91.206257,51.1438105 C91.3241605,49.0800587 93.09237,47.5024127 95.1561629,47.619594 C97.2199558,47.7367752 98.7982205,49.5044326 98.6817614,51.5682664 C98.562982,53.6330794 96.7940379,55.2113808 94.7290911,55.0949494 C92.6653808,54.9763238 91.0883536,53.2075623 91.206257,51.1438105 Z M2.46542436,49.1482042 L2.55609698,49.1516078 C3.19815021,49.1864484 3.79984761,49.4757223 4.22803319,49.9554131 C4.65621878,50.435104 4.87558517,51.0656574 4.83758646,51.7075314 C4.76087313,53.0417943 3.61739897,54.0614499 2.2830974,53.9854133 C0.948795827,53.9093768 -0.0714396592,52.76642 0.00392006523,51.43208 C0.0775670687,50.128066 1.17034108,49.1234876 2.46542436,49.1482042 L2.46542436,49.1482042 Z M108.951861,48.8980323 L109.052913,48.9017499 C110.388771,48.9809113 111.408959,50.1256461 111.334402,51.4617695 C111.278109,52.4409302 110.637518,53.2897623 109.711343,53.6124452 C108.785167,53.9351281 107.75581,53.6681126 107.103272,52.9359112 C106.450734,52.2037098 106.303527,51.1505224 106.730294,50.2674629 C107.142346,49.4148537 108.011119,48.8829646 108.951861,48.8980323 L108.951861,48.8980323 Z M46.7932359,28.6712803 C49.6222936,28.6579231 52.2163217,30.2435149 53.4943432,32.7674823 C54.6714843,35.0927198 54.5570868,37.862352 53.1921983,40.0825929 C51.8273097,42.3028339 49.4076494,43.6553105 46.801428,43.6548099 C43.9657268,43.6637862 41.3696117,42.0658108 40.1003206,39.5300301 C38.9368472,37.2071794 39.0583692,34.4476475 40.4215265,32.2360625 C41.7846837,30.0244775 44.195297,28.6758755 46.7932359,28.6712803 Z M64.4758034,28.6181989 C67.9069076,28.6226058 70.8969909,30.9560954 71.7349445,34.2833059 C72.5728981,37.6105164 71.0447677,41.0819123 68.025043,42.7109484 C65.0053183,44.3399844 61.2650245,43.7107196 58.9445866,41.1832576 C56.6241488,38.6557956 56.3160434,34.8754725 58.1965873,32.0056205 C59.5846723,29.8900246 61.9454827,28.6164498 64.4758034,28.6181989 Z M25.7355386,33.9471394 C27.0702323,31.9117871 29.8021285,31.3436718 31.8376053,32.6781757 C33.8730821,34.0126795 34.4414522,36.7445228 33.1071382,38.780124 C31.7728242,40.8157253 29.041034,41.3843502 27.0053083,40.0502261 C26.0265995,39.4101255 25.3427244,38.4069859 25.1045181,37.262059 C24.8663119,36.1171321 25.0933433,34.924475 25.7355386,33.9471394 Z M79.8686893,32.3128228 C80.9124654,31.7859144 82.1229507,31.6957809 83.2332516,32.0622954 C84.3435525,32.42881 85.2624908,33.2218743 85.7874546,34.2666298 C86.882346,36.4405797 86.0075967,39.0904992 83.8336471,40.1853912 C81.6596975,41.2802832 79.0097778,40.4055346 77.9148852,38.2315853 C76.8199925,36.0576361 77.6947403,33.4077161 79.8686893,32.3128228 Z M11.1577629,25.6649639 C11.8419404,24.6213579 13.0875518,24.0928463 14.3134594,24.3260051 C15.5393669,24.5591639 16.5039886,25.508046 16.757282,26.7299522 C17.0105755,27.9518584 16.5026256,29.2059953 15.4704156,29.9072475 C14.4382055,30.6084998 13.0851465,30.6186761 12.0425057,29.9330286 C10.6206706,28.9980205 10.2247593,27.0881151 11.1577629,25.6649639 Z M96.1019574,24.4163493 C97.6229314,23.6506837 99.4766289,24.2624772 100.243046,25.7830723 C101.009464,27.3036675 100.398587,29.1576673 98.8783709,29.9248365 C97.3558471,30.6906365 95.5007702,30.0783878 94.7331872,28.5567621 C93.9682736,27.0354098 94.5809835,25.1820149 96.1019574,24.4163493 Z M51.1964696,20.9217596 C51.335972,18.4924386 53.41785,16.6358327 55.8472338,16.7742369 C58.2766175,16.9126412 60.1341643,18.9936798 59.9968582,21.4231258 C59.8595521,23.8525719 57.7793533,25.7110592 55.3498454,25.5748512 C52.9182944,25.4362618 51.0591024,23.3533799 51.1964696,20.9217596 Z M34.2679874,14.1251915 C36.1141774,13.195029 38.3648618,13.9373149 39.2954726,15.7832791 C40.2260834,17.6292432 39.4843439,19.8801078 37.6386058,20.8111667 C36.751677,21.2585666 35.7232971,21.3351263 34.7798976,21.0239888 C33.836498,20.7128514 33.0554329,20.0395284 32.6086792,19.152274 C31.6789649,17.3058582 32.4217973,15.0553541 34.2679874,14.1251915 Z M72.0862297,15.3265807 C73.2184808,13.5943765 75.5403897,13.1076736 77.2729534,14.2393746 C79.005517,15.3710757 79.4929571,17.69283 78.3618063,19.4257529 C77.2306554,21.1586758 74.909056,21.646853 73.175774,20.5162525 C72.3418423,19.9735897 71.7582232,19.1212923 71.5537954,18.1475704 C71.3493676,17.1738485 71.5409477,16.1588022 72.0862297,15.3265807 Z M27.8327216,3.22603627 C29.0253862,2.62458998 30.4798546,3.1009284 31.0856734,4.29137797 C31.6914921,5.48182754 31.220494,6.93803414 30.0322755,7.54821711 C29.4558734,7.84297567 28.7856508,7.89543216 28.1704086,7.69394033 C27.5551664,7.4924485 27.045819,7.05368285 26.7554504,6.47505688 C26.1583846,5.28019331 26.640057,3.82748255 27.8327216,3.22603627 Z M80.1595075,3.93961346 C80.6962473,3.11841101 81.674927,2.70153767 82.6389605,2.88347844 C83.6029941,3.0654192 84.3624133,3.81032163 84.5629244,4.77066448 C84.7634356,5.73100732 84.3655268,6.71754968 83.5548355,7.27003739 C82.7441441,7.82252511 81.6804215,7.83208741 80.8599289,7.29426316 C79.7409424,6.56077935 79.4275027,5.05956799 80.1595075,3.93961346 Z M54.5398714,0.173007977 C55.7176449,-0.238855192 57.0275474,0.0994486991 57.8585889,1.03012144 C58.6896304,1.96079418 58.8780903,3.30048704 58.3360634,4.4243147 C57.7940365,5.54814236 56.6283057,6.23470327 55.3826137,6.1637585 C53.6829066,6.06695661 52.383076,4.61129301 52.4785275,2.91150958 C52.5484825,1.66576159 53.3620978,0.584871146 54.5398714,0.173007977 Z"/>
    <path d="M486.883136,25.8902456 C502.489015,25.8902456 512,34.164229 512,51.658379 C512,69.1525291 502.505399,77.4265125 486.883136,77.4265125 C471.260872,77.4265125 461.84,69.1525291 461.84,51.658379 C461.84,34.164229 471.277256,25.8902456 486.883136,25.8902456 Z M156.263771,25.8738615 C168.550636,25.8738615 178.063468,32.0080486 178.252496,44.7374503 L178.255363,45.125209 L168.748474,45.125209 C168.748474,37.7195843 163.665299,33.7300497 156.407132,33.7300497 C146.488428,33.7300497 141.768528,39.418625 141.667173,50.5811595 L141.665515,50.9210934 L141.665515,52.3710885 C141.665515,63.9833375 146.318606,69.5744203 156.411228,69.5744203 C164.022596,69.5744203 169.008468,65.660263 169.107424,58.539387 L169.108925,58.3226221 L178.255363,58.3226221 C178.255363,71.3193297 168.822203,77.4142244 156.263771,77.4142244 C141.018342,77.4142244 132.162722,69.5744203 132.162722,51.646091 C132.162722,34.1519409 141.018342,25.8738615 156.263771,25.8738615 Z M215.082781,26.7586043 L234.47749,76.5581538 L224.458597,76.5581538 L220.362566,65.7405349 L197.584535,65.7405349 L193.595001,76.5581538 L184.010287,76.5581538 L203.392708,26.7586043 L215.082781,26.7586043 Z M270.047426,26.7586043 C281.008406,26.7586043 286.308671,32.6405053 286.308671,41.856576 C286.308671,48.5390769 283.393877,53.4414284 277.639656,55.7940923 L277.453051,55.8690993 L288.102733,76.5581538 L277.940479,76.5581538 L268.519607,57.3068063 L253.061184,57.3068063 L253.061184,76.5581538 L243.767289,76.5581538 L243.767289,26.7586043 L270.047426,26.7586043 Z M318.904889,26.7586043 C333.929132,26.7586043 343.063282,34.5984083 343.063282,51.658379 C343.063282,68.54775 334.102872,76.4004357 319.345656,76.5558005 L318.896697,76.5581538 L299.006368,76.5581538 L299.006368,26.7586043 L318.904889,26.7586043 Z M379.087878,26.7586043 L398.470298,76.5581538 L388.451405,76.5581538 L384.388142,65.7405349 L361.593728,65.7405349 L357.600097,76.5581538 L348.01948,76.5581538 L367.410092,26.7586043 L379.087878,26.7586043 Z M416.644389,26.7586043 L438.275531,56.4507358 L438.351732,56.5642163 L438.351732,56.5642163 L438.514617,56.8131487 L438.514617,56.8131487 L438.689104,57.0868317 L438.689104,57.0868317 L438.872341,57.3798118 L438.872341,57.3798118 L439.253653,58.0018495 L439.253653,58.0018495 L440.457482,60.0064719 L440.457482,60.0064719 L440.628544,60.2834478 L440.628544,60.2834478 L440.679064,60.3619389 L440.679064,60.3619389 L440.73315,60.4402703 L441.093601,60.2969092 L441.088411,60.0698293 L441.088411,60.0698293 L441.06002,59.3758398 L441.06002,59.3758398 L440.994881,57.8983816 L440.994881,57.8983816 L440.965149,57.1043641 L440.965149,57.1043641 L440.955429,56.7570815 L440.955429,56.7570815 L440.950584,56.4615834 L440.950584,56.4615834 L440.95024,56.3770072 L440.942048,56.3770072 L440.942048,26.7586043 L449.8673,26.7586043 L449.8673,76.5581538 L441.159137,76.5581538 L419.380538,46.5793001 C419.227074,46.356476 419.074701,46.1259332 418.925344,45.8930019 L418.777062,45.6594719 L418.631218,45.4255341 L418.631218,45.4255341 L418.417954,45.0764539 L418.417954,45.0764539 L418.14612,44.6206418 L418.14612,44.6206418 L418.016529,44.3995274 L418.016529,44.3995274 L417.714426,43.8760505 L417.714426,43.8760505 L417.116866,42.8264547 L417.116866,42.8264547 L417.000921,42.6309245 L417.000921,42.6309245 L416.956964,42.5612722 L416.956964,42.5612722 L416.92292,42.511941 L416.558373,42.7290306 L416.563901,42.9340106 L416.563901,42.9340106 L416.65504,44.9171532 L416.65504,44.9171532 L416.680066,45.5533705 L416.680066,45.5533705 L416.69664,46.0921786 L416.69664,46.0921786 L416.703403,46.423504 C416.70419,46.4762791 416.704797,46.5277138 416.705207,46.5776321 L416.70583,76.5581538 L407.776482,76.5581538 L407.776482,26.7586043 L416.644389,26.7586043 Z M486.883136,33.7300497 C476.968487,33.7300497 471.461781,39.418625 471.352639,50.5930826 L471.350985,50.9333815 L471.350985,52.4571052 C471.350985,63.8522645 476.79461,69.5867084 486.883136,69.5867084 C496.943767,69.5867084 502.379671,63.9663799 502.487383,52.7972617 L502.489015,52.4571052 L502.489015,50.9333815 C502.489015,39.5341262 496.975757,33.7300497 486.883136,33.7300497 Z M318.904889,34.6721369 L308.308455,34.6721369 L308.308455,68.6446212 L318.904889,68.6446212 C328.247772,68.6446212 333.391468,63.381585 333.564946,52.7084607 L333.568681,52.3833766 L333.568681,50.9333815 C333.568681,40.1550026 328.430095,34.7801681 319.18626,34.6737492 L318.904889,34.6721369 Z M209.127152,34.7294814 L208.766701,34.7294814 L208.654053,35.0566785 L208.654053,35.0566785 L207.208689,39.4822761 L207.208689,39.4822761 L206.781984,40.7707769 L206.781984,40.7707769 L206.400077,41.9035505 L206.400077,41.9035505 L206.250937,42.3387596 L206.250937,42.3387596 L205.963463,43.1623145 L205.963463,43.1623145 L205.8268,43.5447778 L205.8268,43.5447778 L205.695966,43.9037768 L205.695966,43.9037768 L200.488621,57.8884428 L217.401135,57.8843467 L212.322056,44.2363702 L212.263678,44.0849092 L212.263678,44.0849092 L212.142159,43.7623518 L212.142159,43.7623518 L212.014896,43.4158016 L212.014896,43.4158016 L211.814821,42.8567335 L211.814821,42.8567335 L211.605909,42.2584509 L211.605909,42.2584509 L211.390612,41.6298151 L211.390612,41.6298151 L211.171382,40.9796876 L211.171382,40.9796876 L210.803917,39.8724503 L210.803917,39.8724503 L209.288296,35.2037578 L209.288296,35.2037578 L209.142324,34.7721852 L209.142324,34.7721852 L209.127152,34.7294814 Z M373.144536,34.7294814 L372.775893,34.7294814 L372.663246,35.0566785 L372.663246,35.0566785 L371.217881,39.4822761 L371.217881,39.4822761 L370.791177,40.7707769 L370.791177,40.7707769 L370.409269,41.9035505 L370.409269,41.9035505 L370.26013,42.3387596 L370.26013,42.3387596 L369.972656,43.1623145 L369.972656,43.1623145 L369.835992,43.5447778 L369.835992,43.5447778 L369.705158,43.9037768 L369.705158,43.9037768 L364.506006,57.8884428 L381.41852,57.8843467 L376.339441,44.2363702 L376.22105,43.9267937 L376.22105,43.9267937 L376.09652,43.5919117 L376.09652,43.5919117 L375.899814,43.0478843 L375.899814,43.0478843 L375.693406,42.4616886 L375.693406,42.4616886 L375.407365,41.6298151 L375.407365,41.6298151 L375.114302,40.7597341 L375.114302,40.7597341 L374.820062,39.8724503 L374.820062,39.8724503 L374.353188,38.4440989 L374.353188,38.4440989 L373.256359,35.0578828 L373.256359,35.0578828 L373.144536,34.7294814 Z M269.318333,34.6721369 L253.061184,34.6721369 L253.061184,49.4792904 L269.318333,49.4792904 C274.110689,49.4792904 276.941047,46.5793001 276.941047,41.856576 C276.941047,37.4091051 274.385529,34.7320715 269.484427,34.6731309 L269.318333,34.6721369 Z"/>
  </g>
</svg>

<svg width="512" height="103" xmlns="http://www.w3.org/2000/svg" preserveAspectRatio="xMidYMid"><g fill="#0033AD"><path d="M52.378 99.618a3.084 3.084 0 1 1 6.159.352 3.084 3.084 0 0 1-6.159-.352Zm-25.26-3.337a2.425 2.425 0 1 1 4.053 2.661 2.425 2.425 0 0 1-4.054-2.661Zm54.18-.95a2.42 2.42 0 0 1 3.257 1.072 2.425 2.425 0 1 1-3.257-1.073ZM32.973 83.448a3.744 3.744 0 1 1 6.264 4.1 3.744 3.744 0 0 1-6.264-4.1Zm40.719-1.382a3.74 3.74 0 0 1 5.034 1.639 3.748 3.748 0 1 1-5.14-1.583l.106-.056ZM51.434 79.78a4.407 4.407 0 1 1 7.928 3.853 4.407 4.407 0 0 1-7.928-3.853Zm-38.982-6.822a3.084 3.084 0 1 1-.092.048l.092-.048Zm82.566.877a3.084 3.084 0 1 1 5.16 3.381 3.084 3.084 0 0 1-5.16-3.381ZM43.304 60.156a7.496 7.496 0 0 1 9.83 10.705 7.46 7.46 0 0 1-6.275 3.387 7.496 7.496 0 0 1-3.555-14.092Zm18.937-.564a7.496 7.496 0 0 1 8.99 3.76 7.5 7.5 0 0 1-3.319 10.052 7.578 7.578 0 0 1-3.375.82 7.496 7.496 0 0 1-2.296-14.632Zm-36.095 4.163a4.407 4.407 0 1 1 6.68 5.75 4.407 4.407 0 0 1-6.68-5.75Zm52.08.339a4.407 4.407 0 0 1 6.103-1.266 4.416 4.416 0 0 1 1.266 6.103 4.407 4.407 0 0 1-7.369-4.837Zm-47.74-13.038a7.496 7.496 0 1 1 7.63 7.925l-.137.001h-.41a7.512 7.512 0 0 1-7.068-7.794l.006-.136-.02.004Zm35.364-.084a7.498 7.498 0 0 1 7.916-7.055 7.406 7.406 0 0 1 5.16 2.482 7.496 7.496 0 0 1-5.434 12.487l-.152.002h-.435a7.498 7.498 0 0 1-7.055-7.916Zm-53.197.341a3.744 3.744 0 1 1 7.475.425 3.744 3.744 0 0 1-7.475-.425Zm78.553-.17a3.744 3.744 0 1 1 7.476.428 3.744 3.744 0 0 1-7.476-.427Zm-88.74-1.995.09.004a2.417 2.417 0 0 1 2.282 2.556 2.42 2.42 0 1 1-2.373-2.56Zm106.486-.25.1.004a2.425 2.425 0 1 1-.101-.004ZM46.793 28.671a7.472 7.472 0 0 1 6.701 4.096 7.5 7.5 0 0 1-6.693 10.888 7.467 7.467 0 0 1-6.7-4.125 7.5 7.5 0 0 1 6.692-10.859Zm17.683-.053a7.496 7.496 0 1 1-.02 14.992 7.496 7.496 0 0 1 .02-14.992Zm-38.74 5.33a4.407 4.407 0 1 1 7.37 4.833 4.407 4.407 0 0 1-7.37-4.834Zm54.133-1.635a4.403 4.403 0 0 1 5.918 1.954 4.407 4.407 0 1 1-5.918-1.954Zm-68.711-6.648a3.084 3.084 0 1 1 5.159 3.382 3.084 3.084 0 0 1-5.16-3.382Zm84.944-1.249a3.084 3.084 0 1 1 2.774 5.51 3.084 3.084 0 0 1-2.774-5.51Zm-44.906-3.494a4.407 4.407 0 1 1 8.8.505 4.407 4.407 0 0 1-8.8-.505Zm-16.928-6.797a3.744 3.744 0 1 1 3.369 6.687 3.744 3.744 0 0 1-3.369-6.687Zm37.818 1.202a3.748 3.748 0 1 1 6.275 4.1 3.748 3.748 0 0 1-6.275-4.1ZM27.833 3.226a2.425 2.425 0 1 1 2.183 4.33 2.425 2.425 0 0 1-2.183-4.33Zm52.327.714a2.425 2.425 0 1 1 4.059 2.653 2.425 2.425 0 0 1-4.06-2.653ZM54.54.173a3.084 3.084 0 1 1 2.036 5.823A3.084 3.084 0 0 1 54.54.173ZM486.883 25.89C502.49 25.89 512 34.164 512 51.658c0 17.495-9.495 25.769-25.117 25.769-15.622 0-25.043-8.274-25.043-25.769 0-17.494 9.437-25.768 25.043-25.768Zm-330.62-.016c12.288 0 21.8 6.134 21.99 18.863l.002.388h-9.507c0-7.405-5.083-11.395-12.34-11.395-9.92 0-14.64 5.689-14.74 16.851l-.002.34v1.45c0 11.612 4.653 17.203 14.745 17.203 7.612 0 12.597-3.914 12.696-11.035l.002-.216h9.146c0 12.996-9.433 19.091-21.991 19.091-15.246 0-24.101-7.84-24.101-25.768 0-17.494 8.855-25.772 24.1-25.772Zm58.82.885 19.394 49.8H224.46l-4.096-10.818h-22.778l-3.99 10.817h-9.585l19.383-49.8h11.69Zm54.964 0c10.961 0 16.262 5.882 16.262 15.098 0 6.682-2.915 11.584-8.67 13.937l-.186.075 10.65 20.69H277.94l-9.42-19.252H253.06v19.251h-9.294v-49.8h26.28Zm48.858 0c15.024 0 24.158 7.84 24.158 24.9 0 16.889-8.96 24.741-23.717 24.897l-.45.002h-19.89v-49.8h19.899Zm60.183 0 19.382 49.8h-10.019l-4.063-10.818h-22.794L357.6 76.558h-9.58l19.39-49.8h11.678Zm37.556 0 21.632 29.692.076.113.163.25.174.273.183.293.382.622 1.203 2.004.172.277.05.079.054.078.36-.143-.005-.227-.028-.694-.065-1.478-.03-.794-.01-.347-.004-.295v-.085h-.009V26.759h8.925v49.8h-8.708l-21.778-29.98a25.094 25.094 0 0 1-.456-.686l-.148-.234-.146-.233-.213-.35-.272-.455-.13-.221-.302-.524-.597-1.05-.116-.195-.044-.07-.034-.05-.365.218.006.205.091 1.983.025.636.017.54.006.33.002.155v29.98h-8.929v-49.8h8.868Zm70.24 6.971c-9.916 0-15.422 5.689-15.531 16.863l-.002.34v1.524c0 11.395 5.444 17.13 15.532 17.13 10.06 0 15.497-5.62 15.604-16.79l.002-.34v-1.524c0-11.399-5.513-17.203-15.606-17.203Zm-167.98.942h-10.596v33.973h10.597c9.343 0 14.486-5.263 14.66-15.937l.004-.325v-1.45c0-10.778-5.139-16.153-14.383-16.26h-.281Zm-109.777.057h-.36l-.113.328-1.445 4.425-.427 1.289-.382 1.133-.15.435-.287.823-.136.383-.131.359-5.207 13.984 16.912-.004-5.079-13.648-.058-.151-.122-.323-.127-.346-.2-.56-.21-.598-.214-.628-.22-.65-.367-1.108-1.516-4.668-.146-.432-.015-.043Zm164.018 0h-.37l-.112.328-1.445 4.425-.427 1.289-.382 1.133-.149.435-.287.823-.137.383-.13.359-5.2 13.984 16.913-.004-5.08-13.648-.118-.31-.124-.334-.197-.544-.207-.586-.286-.832-.293-.87-.294-.888-.467-1.428-1.097-3.386-.111-.329Zm-103.827-.057h-16.257V49.48h16.257c4.793 0 7.623-2.9 7.623-7.622 0-4.448-2.555-7.125-7.457-7.184h-.166Z"/></g></svg>
